src/topics/icons/ibm.svg

<svg height="205" preserveAspectRatio="xMidYMid" viewBox="0 0 512 205" width="512" xmlns="http://www.w3.org/2000/svg"><path d="m0 0v14.011904h99.6600013v-14.011904zm113.780004 0v14.011904h142.019993c-.000005 0-14.506557-14.011904-33.719997-14.011904zm169.879997 0v14.011904h85.92l-5.100001-14.011904zm147.52 0-5.100001 14.011904h85.139999v-14.011904zm-431.180001 27.2497715v14.0118999h99.6600013v-14.0118999zm113.780004.0198477v13.9920522h158.499999c0 .0000062-1.851203-10.7841618-5.080003-13.9920522zm169.879997 0v13.9920522h95.340002l-4.720006-13.9920522zm137.319998 0-4.72 13.9920522h94.96v-13.9920522zm-392.340001 27.2299238v14.031744h43.1599994v-14.031744zm113.780006 0v14.031744h43.159992v-14.031744zm85.139999 0v14.031744h43.159997c.000005 0 2.739999-7.4101862 2.739999-14.031744zm84.739998 0v14.031744h76.520003l-5.100001-14.031744zm99.28 0-5.12 14.031744h76.899999v-14.031744zm-382.940003 27.2696218v14.0118938h43.1599994v-14.0118938zm113.780006 0v14.0118938h110.24c.000005-.0000052 9.221755-7.1896474 12.159995-14.0118938zm169.879997 0v14.0118938h43.159998v-7.7998234l2.739998 7.7998234h79.060004l2.940002-7.7998234v7.7998234h43.159997v-14.0118938h-81.020001l-4.300002 11.8684314-4.319994-11.8684314zm-283.660003 27.2497712v14.011894h43.1599994v-14.011894zm113.780006 0v14.011894h122.399995c-2.938875-6.800015-12.159995-14.011894-12.159995-14.011894zm169.879997 0v14.011894h43.159998v-14.011894zm50.999998 0 5.220004 14.011894h59.28l4.96-14.011894zm76.900004 0v14.011894h43.159997v-14.011894zm-411.560005 27.249772v14.011894h43.1599994v-14.011894zm113.780006 0v14.011894h43.159992v-14.011894zm85.139999 0v14.011894h45.899996c.00001-6.612649-2.739999-14.011894-2.739999-14.011894zm84.739998 0v14.011894h43.159998v-14.011894zm60.799995 0 5.060004 14.011894h39.739996l5.100001-14.011894zm67.100007 0v14.011894h43.159997v-14.011894zm-439.42000684 27.249771v14.031744h99.66000084v-14.031744zm113.00000784 0v14.031744h153.419996c3.2288-3.212969 5.080003-14.031744 5.080003-14.031744zm170.659993 0v14.031744h71.020002v-14.031744zm98.48 0 5.2 14.031744h20.220002l4.88-14.031744zm57.280006 0v14.031744h71.799997v-14.031744zm-439.42000684 27.269617v14.011904h99.66000084v-14.011904zm113.00000784 0v13.992059h108.299996c19.213435-.00001 33.719997-13.992059 33.719997-13.992059zm170.659993 0v14.011904h71.020002v-14.011904zm108.340004 0 5.000003 13.972204.859996.019855 5.080003-13.992059zm47.420002 0v14.011904h71.799997v-14.011904z" fill="#1f70c1"/></svg>

<?xml version="1.0" encoding="UTF-8"?>
<svg width="512px" height="205px" viewBox="0 0 512 205" version="1.1" xmlns="http://www.w3.org/2000/svg" xmlns:xlink="http://www.w3.org/1999/xlink" preserveAspectRatio="xMidYMid">
    <g>
        <path d="M0,0 L0,14.011904 L99.6600013,14.011904 L99.6600013,0 L0,0 Z M113.780004,0 L113.780004,14.011904 L255.799997,14.011904 C255.799992,14.011904 241.29344,0 222.08,0 L113.780004,0 Z M283.660001,0 L283.660001,14.011904 L369.580001,14.011904 L364.48,0 L283.660001,0 Z M431.180001,0 L426.08,14.011904 L511.219999,14.011904 L511.219999,0 L431.180001,0 Z M0,27.2497715 L0,41.2616714 L99.6600013,41.2616714 L99.6600013,27.2497715 L0,27.2497715 Z M113.780004,27.2696192 L113.780004,41.2616714 L272.280003,41.2616714 C272.280003,41.2616776 270.4288,30.4775096 267.2,27.2696192 L113.780004,27.2696192 Z M283.660001,27.2696192 L283.660001,41.2616714 L379.000003,41.2616714 L374.279997,27.2696192 L283.660001,27.2696192 Z M420.979999,27.2696192 L416.259999,41.2616714 L511.219999,41.2616714 L511.219999,27.2696192 L420.979999,27.2696192 Z M28.639998,54.499543 L28.639998,68.531287 L71.7999974,68.531287 L71.7999974,54.499543 L28.639998,54.499543 Z M142.420004,54.499543 L142.420004,68.531287 L185.579996,68.531287 L185.579996,54.499543 L142.420004,54.499543 Z M227.560003,54.499543 L227.560003,68.531287 L270.72,68.531287 C270.720005,68.531287 273.459999,61.1211008 273.459999,54.499543 L227.560003,54.499543 Z M312.300001,54.499543 L312.300001,68.531287 L388.820004,68.531287 L383.720003,54.499543 L312.300001,54.499543 Z M411.580001,54.499543 L406.460001,68.531287 L483.36,68.531287 L483.36,54.499543 L411.580001,54.499543 Z M28.639998,81.7691648 L28.639998,95.7810586 L71.7999974,95.7810586 L71.7999974,81.7691648 L28.639998,81.7691648 Z M142.420004,81.7691648 L142.420004,95.7810586 L252.660004,95.7810586 C252.660009,95.7810534 261.881759,88.5914112 264.819999,81.7691648 L142.420004,81.7691648 Z M312.300001,81.7691648 L312.300001,95.7810586 L355.459999,95.7810586 L355.459999,87.9812352 L358.199997,95.7810586 L437.260001,95.7810586 L440.200003,87.9812352 L440.200003,95.7810586 L483.36,95.7810586 L483.36,81.7691648 L402.339999,81.7691648 L398.039997,93.6375962 L393.720003,81.7691648 L312.300001,81.7691648 Z M28.639998,109.018936 L28.639998,123.03083 L71.7999974,123.03083 L71.7999974,109.018936 L28.639998,109.018936 Z M142.420004,109.018936 L142.420004,123.03083 L264.819999,123.03083 C261.881124,116.230815 252.660004,109.018936 252.660004,109.018936 L142.420004,109.018936 Z M312.300001,109.018936 L312.300001,123.03083 L355.459999,123.03083 L355.459999,109.018936 L312.300001,109.018936 Z M363.299999,109.018936 L368.520003,123.03083 L427.800003,123.03083 L432.760003,109.018936 L363.299999,109.018936 Z M440.200003,109.018936 L440.200003,123.03083 L483.36,123.03083 L483.36,109.018936 L440.200003,109.018936 Z M28.639998,136.268708 L28.639998,150.280602 L71.7999974,150.280602 L71.7999974,136.268708 L28.639998,136.268708 Z M142.420004,136.268708 L142.420004,150.280602 L185.579996,150.280602 L185.579996,136.268708 L142.420004,136.268708 Z M227.560003,136.268708 L227.560003,150.280602 L273.459999,150.280602 C273.460009,143.667953 270.72,136.268708 270.72,136.268708 L227.560003,136.268708 Z M312.300001,136.268708 L312.300001,150.280602 L355.459999,150.280602 L355.459999,136.268708 L312.300001,136.268708 Z M373.099996,136.268708 L378.16,150.280602 L417.899996,150.280602 L422.999997,136.268708 L373.099996,136.268708 Z M440.200003,136.268708 L440.200003,150.280602 L483.36,150.280602 L483.36,136.268708 L440.200003,136.268708 Z M0.77999616,163.518479 L0.77999616,177.550223 L100.439997,177.550223 L100.439997,163.518479 L0.77999616,163.518479 Z M113.780004,163.518479 L113.780004,177.550223 L267.2,177.550223 C270.4288,174.337254 272.280003,163.518479 272.280003,163.518479 L113.780004,163.518479 Z M284.439997,163.518479 L284.439997,177.550223 L355.459999,177.550223 L355.459999,163.518479 L284.439997,163.518479 Z M382.919997,163.518479 L388.119997,177.550223 L408.339999,177.550223 L413.219999,163.518479 L382.919997,163.518479 Z M440.200003,163.518479 L440.200003,177.550223 L512,177.550223 L512,163.518479 L440.200003,163.518479 Z M0.77999616,190.788096 L0.77999616,204.8 L100.439997,204.8 L100.439997,190.788096 L0.77999616,190.788096 Z M113.780004,190.788096 L113.780004,204.780155 L222.08,204.780155 C241.293435,204.780145 255.799997,190.788096 255.799997,190.788096 L113.780004,190.788096 Z M284.439997,190.788096 L284.439997,204.8 L355.459999,204.8 L355.459999,190.788096 L284.439997,190.788096 Z M392.780001,190.788096 L397.780004,204.7603 L398.64,204.780155 L403.720003,190.788096 L392.780001,190.788096 Z M440.200003,190.788096 L440.200003,204.8 L512,204.8 L512,190.788096 L440.200003,190.788096 Z" fill="#1F70C1" fill-rule="nonzero"></path>
    </g>
</svg>
